src/pos-icons/block-helper.svg

<svg height="24" viewBox="0 0 24 24" width="24" xmlns="http://www.w3.org/2000/svg"><path d="m12 0a12 12 0 0 1 12 12 12 12 0 0 1 -12 12 12 12 0 0 1 -12-12 12 12 0 0 1 12-12m0 2a10 10 0 0 0 -10 10c0 2.4.85 4.6 2.26 6.33l14.07-14.07c-1.73-1.41-3.93-2.26-6.33-2.26m0 20a10 10 0 0 0 10-10c0-2.4-.85-4.6-2.26-6.33l-14.07 14.07c1.73 1.41 3.93 2.26 6.33 2.26z"/></svg>

<?xml version="1.0" encoding="UTF-8"?><!DOCTYPE svg PUBLIC "-//W3C//DTD SVG 1.1//EN" "http://www.w3.org/Graphics/SVG/1.1/DTD/svg11.dtd"><svg xmlns="http://www.w3.org/2000/svg" xmlns:xlink="http://www.w3.org/1999/xlink" version="1.1" id="mdi-block-helper" width="24" height="24" viewBox="0 0 24 24"><path d="M12,0A12,12 0 0,1 24,12A12,12 0 0,1 12,24A12,12 0 0,1 0,12A12,12 0 0,1 12,0M12,2A10,10 0 0,0 2,12C2,14.4 2.85,16.6 4.26,18.33L18.33,4.26C16.6,2.85 14.4,2 12,2M12,22A10,10 0 0,0 22,12C22,9.6 21.15,7.4 19.74,5.67L5.67,19.74C7.4,21.15 9.6,22 12,22Z" /></svg>
